!!!OTL: ALLEWEIL RAPPELTS AM SCHEUERTHOR
!!!ARE: Europa, Mitteleuropa, Deutschland, Hessen, Odenwald, Spachbruecken
!!!SCT: E1006
!!!YEM: Copyright 1995, estate of Helmut Schaffrath.
**kern
*ICvox
*Ivox
*M3/8
*k[f#]
*G:
=1
{8.g
16g
8g
=2
8g
8b
8dd
=3
8a
8f#
8d}
=4
{8.g
16g
8g
=5
8g
8b
8dd
=6
4.a}
=7
{8b
8b
8b
=8
8.dd
16cc
8b
=9
8.ee
16dd
8dd}
=10
{8b
8b
8b
=11
8dd
8cc
8a
=12
4.g}
==
!!!AGN: Tanz - Lied
!!!ONB: ESAC (Essen Associative Code) Database: ERK3
!!!AMT: simple triple
!!!AIN: vox
!!!EED: Helmut Schaffrath
!!!EEV: 1.0
*-
